X:615
T:Cleveland Park
R:Jig
C:Ivan Drever
D:Wolfstone
S:Nottingham Music Database
Z:Transcription:??,Mike Long, chords:Mike Long
M:6/8
L:1/8
K:F
"Dm"A,DE FED|"Bb"B,DE FED|"G"=B,DE FED|"C"(E/F/G)E FED|\
"Dm"A,DE FED|"Bb"B,DE FED|\
"C"(E/F/G)E C2G|"C"GFE "Dm"Dz2:|
"Dm"DFA dAF|"Gm"GAB "Dm"AFD|"Bb"B,DF "Dm"A,DF|"Dm"FED "A"^CDE|\
"Dm"DFA dAF|"Gm"GAB "Dm"AFD|"Bb"B,DF "Dm"A,EF|"A"ED^C "Dm"DDD||
"Dm"DFA dAF|"Gm"GAB "Dm"AFD|\
"Bb"B,DF "Dm"A,DF|"Dm"FED "A"^CDE|\
"Dm"A,DE FED|"Bb"B,DE FED|"C"(E/F/G)E C2G|"C"GFE "Dm"Dz2|]
